X: 0
T: Astley's Ride
T: Ashley's Ride
O: trad England
M: C|
N: Dated to 1789 in Oxford, England, played by unnamed streed musicians and notated by the antiquarian Jean-Baptiste Malchair.
R: reel
K: D
af |\
"D"d2d2 d2cd | "A"e2e2 e2fe | "G"dcBA "A7"B2c2 | "D"dcde d2af | "D"d2d2 d2cd |
"A"e2e2 e2fe | "G"dcBA "A7"B2c2 | "D"d4 d2 :: de | "D"f2f2 f2ef | "G"g2g2 g2af |
"A"e2e2 e2de | "D"f2f2 "(/c#)"f3af | "D(Bm)"d2d2 d2cd | "A(Em)"e2e2 e2fe | "G"dcBA "A7"B2c2 | "D"d4 D2 :|

%%sep 2 1 500

